src/images/bg-pattern-intro-mobile.svg

<svg width="1324" height="1323" viewBox="0 0 1324 1323" xmlns="http://www.w3.org/2000/svg"><defs><linearGradient x1=".695%" y1="0%" x2="99.305%" y2="100%" id="a"><stop stop-color="#FF8F71" offset="0%"/><stop stop-color="#FF3E55" offset="100%"/></linearGradient></defs><path d="M821.895188,497.739327 L821.895188,825.739327 L493.895188,825.739327 L493.895188,597.739327 C493.895188,542.510852 538.666713,497.739327 593.895188,497.739327 L821.895188,497.739327 Z M276.655938,496.460979 C367.230637,496.460979 440.655938,569.88628 440.655938,660.460979 C440.655938,751.035678 367.230637,824.460979 276.655938,824.460979 C186.081239,824.460979 112.655938,751.035678 112.655938,660.460979 C112.655938,569.88628 186.081239,496.460979 276.655938,496.460979 Z M822.227687,111.489551 L822.227687,439.489551 L594.227687,439.489551 C538.999212,439.489551 494.227687,394.718026 494.227687,339.489551 L494.227687,339.489551 L494.227687,111.489551 L822.227687,111.489551 Z M440.061253,110.58581 L440.061253,338.58581 C440.061253,393.814285 395.289728,438.58581 340.061253,438.58581 L112.061253,438.58581 L112.061253,110.58581 L440.061253,110.58581 Z" transform="rotate(22 67.652 1066.199)" fill="url(#a)" fill-rule="evenodd"/></svg>

<svg xmlns="http://www.w3.org/2000/svg" width="1324" height="1323" xmlns:v="https://vecta.io/nano"><defs><linearGradient x1=".695%" y1="0%" x2="99.305%" y2="100%" id="A"><stop stop-color="#ff8f71" offset="0%"/><stop stop-color="#ff3e55" offset="100%"/></linearGradient></defs><path d="M821.895 497.739v328h-328v-228c0-55.228 44.772-100 100-100h228zm-545.239-1.278c90.575 0 164 73.425 164 164s-73.425 164-164 164-164-73.425-164-164 73.425-164 164-164zM822.228 111.49v328h-228c-55.228 0-100-44.772-100-100h0v-228h328zm-382.166-.904v228c0 55.228-44.772 100-100 100h-228v-328h328z" transform="rotate(22 67.652 1066.199)" fill="url(#A)" fill-rule="evenodd"/></svg>
